_icons/SVG/052-meowth-shiny.svg

<svg xmlns="http://www.w3.org/2000/svg" width="32" height="32"><path fill="#373F3F" d="M14.617 4.067C13.354 2.941 9.37-.495 8.407.061c-.848.489-.187 4.551.218 6.648 1.377-1.496 3.517-2.4 5.992-2.642z"/><path fill="#2B3332" d="M23.375 6.709C23.78 4.612 24.441.55 23.593.06c-.963-.556-4.946 2.88-6.21 4.006 2.475.243 4.615 1.147 5.992 2.643z"/><path fill="#EACEA1" d="M14.683 29.367a3.69 3.69 0 01-.303-2.436c-.895-.085-1.706-.258-2.38-.568v.21c0 .938.219 1.864.638 2.703a.5.5 0 01-.447.724H11a1 1 0 000 2h2.71A1.29 1.29 0 0015 30.71v-.002c0-.466-.108-.925-.317-1.341z"/><path fill="#E5C79A" d="M21 30h-1.191a.5.5 0 01-.447-.724A6.053 6.053 0 0020 26.573v-.21c-.674.31-1.485.483-2.38.568a3.69 3.69 0 01-.303 2.436A2.986 2.986 0 0017 30.708v.002c0 .712.578 1.29 1.29 1.29H21a1 1 0 000-2z"/><path fill="#E5C79A" d="M16 25c12 0 12-5 12-5l3-1s1 8-15 8v-2z"/><path fill="#F57552" d="M31 19a3 3 0 00-3-3v4s-.003.636-.546 1.454l1.804 1.804C31.267 21.176 31 19 31 19z"/><path fill="#FF805D" d="M28 16a2 2 0 100 4v-4z"/><path fill="#FF8D6E" d="M28 20a1 1 0 000-2v2z"/><path fill="#EACEA1" d="M25 11c0-4.51-4.029-7-9-7v14c4.971 0 9-2.49 9-7z"/><path fill="#EFD4A7" d="M16 4c-4.971 0-9 2.49-9 7s4.029 7 9 7V4z"/><path fill="#E5C79A" d="M24.271 10.144v-.001a.497.497 0 01.353-.61c1.692-.443 7.265-1.87 7.374-1.46.11.41-5.429 1.96-7.117 2.423a.496.496 0 01-.61-.352z"/><path fill="#EACEA1" d="M7.729 10.144v-.001a.497.497 0 00-.353-.61C5.684 9.09.111 7.663.002 8.073c-.11.41 5.429 1.96 7.117 2.423a.496.496 0 00.61-.352z"/><path fill="#E5C79A" d="M24.271 12.856v.001a.497.497 0 00.353.61c1.692.443 7.265 1.87 7.374 1.46.11-.41-5.429-1.96-7.117-2.423a.496.496 0 00-.61.352z"/><path fill="#EACEA1" d="M7.729 12.856v.001a.497.497 0 01-.353.61c-1.692.443-7.265 1.87-7.374 1.46-.11-.41 5.429-1.96 7.117-2.423a.496.496 0 01.61.352z"/><path fill="#F7F7F7" d="M18 10.286C18 11.548 19.119 12 20.5 12s2.5-.452 2.5-1.714S21.881 8 20.5 8 18 9.023 18 10.286z"/><path fill="#2B3332" d="M20.502 12c.552 0 .5-1.12.5-2.5 0-.545.007-1.045-.017-1.455a2.676 2.676 0 00-.966-.001c-.024.411-.017.911-.017 1.456-.001 1.38-.053 2.5.5 2.5-.001 0-.001 0 0 0z"/><path fill="#FFF" d="M14 10.286C14 11.548 12.881 12 11.5 12S9 11.548 9 10.286 10.119 8 11.5 8 14 9.023 14 10.286z"/><path fill="#373F3F" d="M11.498 12c-.552 0-.5-1.12-.5-2.5 0-.545-.007-1.045.017-1.455a2.676 2.676 0 01.966-.001c.024.411.017.911.017 1.456.001 1.38.053 2.5-.5 2.5.001 0 .001 0 0 0z"/><path fill="#FFCF6E" d="M16 2c-1.657 0-2 1.343-2 3s.343 3 2 3V2z"/><path fill="#FFC550" d="M18 5c0-1.657-.343-3-2-3v6c1.657 0 2-1.343 2-3zm-2 1v2c-1.304 0-1.789-.837-1.939-2H16z"/><path fill="#F7BC48" d="M17.939 6c-.15 1.163-.635 2-1.939 2V6h1.939z"/><path fill="#FFD98D" d="M16 4V2c-1.304 0-1.789.837-1.939 2H16z"/><path fill="#FFCF6E" d="M17.939 4c-.15-1.163-.635-2-1.939-2v2h1.939z"/><path fill="#EFD4A7" d="M12 17s-4.073 2.444-7.072 6.596A4.96 4.96 0 004 26.499v.001a1.5 1.5 0 003 0c0-1.314.322-2.618.997-3.745a9.97 9.97 0 012.679-2.949C10.246 20.885 10 22.004 10 23c0 3.314 2.686 4 6 4V15c-1.539 0-4 2-4 2z"/><path fill="#EACEA1" d="M27.072 23.596C24.073 19.444 20 17 20 17s-2.461-2-4-2v12c3.314 0 6-.686 6-4 0-.996-.246-2.115-.676-3.194a9.954 9.954 0 012.678 2.949c.676 1.127.998 2.431.998 3.745a1.5 1.5 0 003 0v-.001a4.96 4.96 0 00-.928-2.903z"/><path fill="#E5C79A" d="M16 14v4c3.971 0 7.334-1.593 8.529-4.531-2.175.688-5.192.531-8.529.531z"/><path fill="#EACEA1" d="M7.471 13.469C8.666 16.407 12.029 18 16 18v-4c-3.337 0-6.354.157-8.529-.531z"/><path fill="#FF8D6E" d="M12.638 29.276a.5.5 0 01-.447.724H11a1 1 0 000 2h2.71A1.29 1.29 0 0015 30.71v-.002c0-.466-.108-.925-.317-1.342 0 0-.539-.367-1.065-.367s-.98.277-.98.277z"/><path fill="#FF805D" d="M19.362 29.276a.5.5 0 00.447.724H21a1 1 0 010 2h-2.71A1.29 1.29 0 0117 30.71v-.002c0-.466.108-.925.317-1.342 0 0 .539-.367 1.065-.367.525.001.98.277.98.277z"/><path fill="#F7F7F7" d="M20.073 14.004c.108.365.311.996.427.996.118 0 .328-.659.434-1.019-.281.011-.569.018-.861.023z"/><path fill="#FFF" d="M11.927 14.004c-.292-.005-.58-.012-.861-.024.106.361.316 1.02.434 1.02.116 0 .319-.631.427-.996z"/><path fill="#FF805D" d="M22.511 5.921c.33-1.816.517-3.469.5-4.425a.25.25 0 00-.371-.214c-.912.506-2.429 1.642-3.968 2.976 1.48.301 2.795.862 3.839 1.663z"/><path fill="#FF8D6E" d="M13.327 4.259c-1.541-1.336-3.059-2.473-3.967-2.978a.25.25 0 00-.371.214c-.017.955.169 2.609.5 4.426 1.044-.801 2.358-1.362 3.838-1.662z"/></svg>

<?xml version="1.0" encoding="utf-8"?>
<!-- Generator: Adobe Illustrator 23.0.6, SVG Export Plug-In . SVG Version: 6.00 Build 0)  -->
<svg version="1.1" xmlns="http://www.w3.org/2000/svg" xmlns:xlink="http://www.w3.org/1999/xlink" x="0px" y="0px" width="32px"
	 height="32px" viewBox="0 0 32 32" enable-background="new 0 0 32 32" xml:space="preserve">
<g id="icons">
	<g>
		<path fill="#373F3F" d="M14.617,4.067c-1.263-1.126-5.247-4.562-6.21-4.006C7.559,0.55,8.22,4.612,8.625,6.709
			C10.002,5.213,12.142,4.309,14.617,4.067z"/>
		<path fill="#2B3332" d="M23.375,6.709c0.405-2.097,1.066-6.159,0.218-6.649c-0.963-0.556-4.946,2.88-6.21,4.006
			C19.858,4.309,21.998,5.213,23.375,6.709z"/>
		<path fill="#EACEA1" d="M14.683,29.367c-0.378-0.757-0.482-1.617-0.303-2.436c-0.895-0.085-1.706-0.258-2.38-0.568v0.21
			c0,0.938,0.219,1.864,0.638,2.703C12.804,29.609,12.563,30,12.191,30H11c-0.552,0-1,0.448-1,1c0,0.552,0.448,1,1,1h2.71
			c0.712,0,1.29-0.578,1.29-1.29v-0.002C15,30.242,14.892,29.783,14.683,29.367L14.683,29.367z"/>
		<path fill="#E5C79A" d="M21,30h-1.191c-0.372,0-0.613-0.391-0.447-0.724C19.781,28.437,20,27.511,20,26.573v-0.21
			c-0.674,0.31-1.485,0.483-2.38,0.568c0.179,0.819,0.075,1.679-0.303,2.436h0C17.108,29.783,17,30.242,17,30.708v0.002
			c0,0.712,0.578,1.29,1.29,1.29H21c0.552,0,1-0.448,1-1C22,30.448,21.552,30,21,30z"/>
		<path fill="#E5C79A" d="M16,25c12,0,12-5,12-5l3-1c0,0,1,8-15,8V25z"/>
		<path fill="#F57552" d="M31,19c0-1.657-1.343-3-3-3v4c0,0-0.003,0.636-0.546,1.454l1.804,1.804C31.267,21.176,31,19,31,19z"/>
		<path fill="#FF805D" d="M28,16c-1.105,0-2,0.895-2,2s0.895,2,2,2V16z"/>
		<path fill="#FF8D6E" d="M28,20c0.552,0,1-0.448,1-1s-0.448-1-1-1V20z"/>
		<path fill="#EACEA1" d="M25,11c0-4.51-4.029-7-9-7v14C20.971,18,25,15.51,25,11z"/>
		<path fill="#EFD4A7" d="M16,4c-4.971,0-9,2.49-9,7c0,4.51,4.029,7,9,7V4z"/>
		<path fill="#E5C79A" d="M24.271,10.144l0-0.001c-0.071-0.266,0.086-0.54,0.353-0.61c1.692-0.443,7.265-1.87,7.374-1.46
			c0.11,0.41-5.429,1.96-7.117,2.423C24.616,10.569,24.343,10.411,24.271,10.144z"/>
		<path fill="#EACEA1" d="M7.729,10.144l0-0.001c0.071-0.266-0.086-0.54-0.353-0.61c-1.692-0.443-7.265-1.87-7.374-1.46
			c-0.11,0.41,5.429,1.96,7.117,2.423C7.384,10.569,7.657,10.411,7.729,10.144z"/>
		<path fill="#E5C79A" d="M24.271,12.856l0,0.001c-0.071,0.266,0.086,0.54,0.353,0.61c1.692,0.443,7.265,1.87,7.374,1.46
			c0.11-0.41-5.429-1.96-7.117-2.423C24.616,12.431,24.343,12.589,24.271,12.856z"/>
		<path fill="#EACEA1" d="M7.729,12.856l0,0.001c0.071,0.266-0.086,0.54-0.353,0.61c-1.692,0.443-7.265,1.87-7.374,1.46
			c-0.11-0.41,5.429-1.96,7.117-2.423C7.384,12.431,7.657,12.589,7.729,12.856z"/>
		<g>
			<path fill="#F7F7F7" d="M18,10.286C18,11.548,19.119,12,20.5,12s2.5-0.452,2.5-1.714S21.881,8,20.5,8S18,9.023,18,10.286z"/>
			<path fill="#2B3332" d="M20.502,12c0.552,0,0.5-1.12,0.5-2.5c0-0.545,0.007-1.045-0.017-1.455C20.827,8.016,20.666,8,20.5,8
				c-0.165,0-0.325,0.017-0.481,0.044c-0.024,0.411-0.017,0.911-0.017,1.456C20.001,10.88,19.949,12,20.502,12
				C20.501,12,20.501,12,20.502,12z"/>
		</g>
		<g>
			<path fill="#FFFFFF" d="M14,10.286C14,11.548,12.881,12,11.5,12S9,11.548,9,10.286S10.119,8,11.5,8S14,9.023,14,10.286z"/>
			<path fill="#373F3F" d="M11.498,12c-0.552,0-0.5-1.12-0.5-2.5c0-0.545-0.007-1.045,0.017-1.455C11.173,8.016,11.334,8,11.5,8
				c0.165,0,0.325,0.017,0.481,0.044c0.024,0.411,0.017,0.911,0.017,1.456C11.999,10.88,12.051,12,11.498,12
				C11.499,12,11.499,12,11.498,12z"/>
		</g>
		<g>
			<path fill="#FFCF6E" d="M16,2c-1.657,0-2,1.343-2,3s0.343,3,2,3V2z"/>
			<path fill="#FFC550" d="M18,5c0-1.657-0.343-3-2-3v6C17.657,8,18,6.657,18,5z"/>
			<path fill="#FFC550" d="M16,6v2c-1.304,0-1.789-0.837-1.939-2H16z"/>
			<path fill="#F7BC48" d="M17.939,6C17.789,7.163,17.304,8,16,8V6H17.939z"/>
			<path fill="#FFD98D" d="M16,4V2c-1.304,0-1.789,0.837-1.939,2H16z"/>
			<path fill="#FFCF6E" d="M17.939,4C17.789,2.837,17.304,2,16,2v2H17.939z"/>
		</g>
		<path fill="#EFD4A7" d="M12,17c0,0-4.073,2.444-7.072,6.596C4.319,24.439,4,25.46,4,26.499V26.5C4,27.328,4.672,28,5.5,28
			S7,27.328,7,26.5v0c0-1.314,0.322-2.618,0.997-3.745c0.568-0.948,1.426-2.039,2.679-2.949C10.246,20.885,10,22.004,10,23
			c0,3.314,2.686,4,6,4V15C14.461,15,12,17,12,17z"/>
		<path fill="#EACEA1" d="M27.072,23.596C24.073,19.444,20,17,20,17s-2.461-2-4-2v12c3.314,0,6-0.686,6-4
			c0-0.996-0.246-2.115-0.676-3.194c1.253,0.909,2.11,2.001,2.678,2.949C24.678,23.882,25,25.186,25,26.5v0
			c0,0.828,0.672,1.5,1.5,1.5s1.5-0.672,1.5-1.5v-0.001C28,25.46,27.681,24.439,27.072,23.596z"/>
		<path fill="#E5C79A" d="M16,14v4c3.971,0,7.334-1.593,8.529-4.531C22.354,14.157,19.337,14,16,14z"/>
		<path fill="#EACEA1" d="M7.471,13.469C8.666,16.407,12.029,18,16,18v-4C12.663,14,9.646,14.157,7.471,13.469z"/>
		<path fill="#FF8D6E" d="M12.638,29.276L12.638,29.276C12.804,29.609,12.563,30,12.191,30H11c-0.552,0-1,0.448-1,1v0
			c0,0.552,0.448,1,1,1h2.71c0.712,0,1.29-0.578,1.29-1.29v-0.002c0-0.466-0.108-0.925-0.317-1.342l0,0c0,0-0.539-0.367-1.065-0.367
			S12.638,29.276,12.638,29.276z"/>
		<path fill="#FF805D" d="M19.362,29.276L19.362,29.276C19.196,29.609,19.437,30,19.809,30H21c0.552,0,1,0.448,1,1v0
			c0,0.552-0.448,1-1,1h-2.71C17.578,32,17,31.422,17,30.71v-0.002c0-0.466,0.108-0.925,0.317-1.342v0c0,0,0.539-0.367,1.065-0.367
			C18.907,29,19.362,29.276,19.362,29.276z"/>
		<path fill="#F7F7F7" d="M20.073,14.004C20.181,14.369,20.384,15,20.5,15c0.118,0,0.328-0.659,0.434-1.019
			C20.653,13.992,20.365,13.999,20.073,14.004z"/>
		<path fill="#FFFFFF" d="M11.927,14.004c-0.292-0.005-0.58-0.012-0.861-0.024C11.172,14.341,11.382,15,11.5,15
			C11.616,15,11.819,14.369,11.927,14.004z"/>
		<path fill="#FF805D" d="M22.511,5.921c0.33-1.816,0.517-3.469,0.5-4.425c-0.003-0.189-0.205-0.305-0.371-0.214
			c-0.912,0.506-2.429,1.642-3.968,2.976l0,0C20.152,4.559,21.467,5.12,22.511,5.921z"/>
		<path fill="#FF8D6E" d="M13.327,4.259L13.327,4.259c-1.541-1.336-3.059-2.473-3.967-2.978C9.195,1.189,8.993,1.306,8.989,1.495
			c-0.017,0.955,0.169,2.609,0.5,4.426C10.533,5.12,11.847,4.559,13.327,4.259z"/>
	</g>
</g>
<g id="labels">
</g>
</svg>
